material/.icons/material/shuffle.svg

<svg xmlns="http://www.w3.org/2000/svg" viewBox="0 0 24 24"><path d="M14.83 13.41l-1.41 1.41 3.13 3.13L14.5 20H20v-5.5l-2.04 2.04-3.13-3.13M14.5 4l2.04 2.04L4 18.59 5.41 20 17.96 7.46 20 9.5V4m-9.41 5.17L5.41 4 4 5.41l5.17 5.17 1.42-1.41z"/></svg>

<?xml version="1.0" encoding="UTF-8"?><!DOCTYPE svg PUBLIC "-//W3C//DTD SVG 1.1//EN" "http://www.w3.org/Graphics/SVG/1.1/DTD/svg11.dtd"><svg xmlns="http://www.w3.org/2000/svg" xmlns:xlink="http://www.w3.org/1999/xlink" version="1.1" id="mdi-shuffle" width="24" height="24" viewBox="0 0 24 24"><path d="M14.83,13.41L13.42,14.82L16.55,17.95L14.5,20H20V14.5L17.96,16.54L14.83,13.41M14.5,4L16.54,6.04L4,18.59L5.41,20L17.96,7.46L20,9.5V4M10.59,9.17L5.41,4L4,5.41L9.17,10.58L10.59,9.17Z" /></svg>
